images/holmes.svg

<?xml version="1.0" encoding="UTF-8" standalone="no"?>
<svg width="81px" height="95px" viewBox="0 0 81 95" version="1.1" xmlns="http://www.w3.org/2000/svg" xmlns:xlink="http://www.w3.org/1999/xlink">
    <!-- Generator: Sketch 3.8.2 (29753) - http://www.bohemiancoding.com/sketch -->
    <title>Shape</title>
    <desc>Created with Sketch.</desc>
    <defs></defs>
    <g id="Page-1" stroke="none" stroke-width="1" fill="none" fill-rule="evenodd">
        <path d="M75.8638259,64.6493632 C71.0638259,64.3493632 71.4638259,66.2493632 71.4638259,66.2493632 L71.6638259,70.8493632 C71.6638259,70.8493632 71.6638259,73.2493632 70.2638259,73.1493632 C68.8638259,73.0493632 68.4638259,70.3493632 68.4638259,70.3493632 L67.3638259,65.7493632 C67.3638259,65.6493632 67.4638259,65.4493632 67.4638259,65.3493632 C67.5638259,65.0493632 67.5638259,64.6493632 67.4638259,64.3493632 C67.3638259,63.6493632 67.2638259,62.8493632 66.7638259,62.2493632 C66.7638259,62.2493632 65.9638259,61.7493632 65.9638259,61.8493632 C65.4638259,58.4493632 63.7638259,55.0493632 60.2638259,54.0493632 C60.0638259,53.9493632 57.7638259,53.5493632 56.6638259,53.3493632 C56.7638259,53.0493632 56.9638259,52.7493632 57.0638259,52.4493632 C57.3638259,51.2493632 56.6638259,50.1493632 56.2638259,49.1493632 C55.9638259,48.1493632 56.0638259,47.2493632 57.2638259,47.1493632 C58.3638259,47.0493632 60.3638259,48.1493632 60.9638259,47.9493632 C61.6638259,47.8493632 62.4638259,47.2493632 62.4638259,46.4493632 C62.4638259,45.6493632 61.2638259,43.9493632 61.2638259,43.9493632 C61.2638259,43.9493632 59.6638259,40.7493632 59.1638259,39.3493632 C58.6638259,37.9493632 56.8638259,36.6493632 56.8638259,36.6493632 C56.8638259,36.6493632 55.0638259,35.3493632 55.2638259,34.4493632 C55.4638259,33.5493632 56.1638259,33.2493632 56.4638259,32.3493632 C57.4638259,32.4493632 58.5638259,32.7493632 59.3638259,32.8493632 C62.2638259,33.2493632 66.0638259,34.0493632 68.3638259,33.5493632 C68.3638259,33.5493632 69.5638259,33.4493632 68.3638259,32.5493632 C67.1638259,31.6493632 64.2638259,28.8493632 63.3638259,27.8493632 C62.4638259,26.8493632 59.2638259,24.7493632 58.6638259,23.4493632 C56.7638259,19.5493632 56.2638259,14.8493632 53.0638259,11.5493632 C50.7638259,9.14936316 47.8638259,7.24936316 44.8638259,5.94936316 C45.9638259,6.14936316 47.0638259,6.24936316 48.1638259,6.24936316 L48.5638259,6.24936316 L48.5638259,5.34936316 C45.7638259,5.44936316 42.5638259,4.74936316 40.2638259,4.14936316 C40.7638259,4.14936316 41.2638259,4.04936316 41.8638259,3.84936316 C42.8638259,3.54936316 44.7638259,2.74936316 44.3638259,1.34936316 C43.8638259,-0.550636844 40.5638259,0.0493631557 39.2638259,0.249363156 C36.7638259,0.649363156 34.4638259,1.84936316 32.2638259,3.04936316 C31.9638259,2.64936316 31.4638259,2.54936316 30.8638259,2.64936316 C30.4638259,2.74936316 30.1638259,2.94936316 29.9638259,3.14936316 C29.5638259,2.94936316 28.2638259,2.44936316 25.0638259,2.44936316 C23.0638259,2.44936316 16.1638259,4.54936316 19.7638259,6.84936316 C18.2638259,7.24936316 16.5638259,7.64936316 15.3638259,7.74936316 L15.4638259,8.64936316 C16.1638259,8.54936316 16.9638259,8.44936316 17.8638259,8.24936316 C15.3638259,9.74936316 13.1638259,11.6493632 11.2638259,13.8493632 C9.26382592,16.1493632 8.16382592,19.2493632 7.76382592,22.1493632 C7.26382592,25.7493632 8.26382592,29.3493632 8.06382592,32.9493632 C7.86382592,34.8493632 6.86382592,35.7493632 5.86382592,37.2493632 C4.86382592,38.7493632 4.46382592,40.4493632 3.46382592,41.9493632 C2.66382592,43.3493632 1.36382592,44.3493632 0.263825924,45.5493632 C-0.136174076,45.9493632 -0.036174076,46.2493632 0.263825924,46.3493632 L0.663825924,46.3493632 C1.46382592,46.2493632 2.16382592,45.8493632 2.86382592,45.6493632 C3.96382592,45.3493632 5.06382592,45.0493632 6.06382592,44.6493632 C6.76382592,44.3493632 9.06382592,43.6493632 11.4638259,42.7493632 C11.5638259,43.6493632 11.6638259,44.6493632 11.8638259,45.2493632 C12.2638259,46.4493632 14.1638259,48.6493632 14.1638259,48.6493632 C14.1638259,48.6493632 15.9638259,50.2493632 16.0638259,52.3493632 C16.0638259,53.4493632 15.7638259,54.3493632 15.3638259,54.9493632 C14.7638259,54.5493632 13.1638259,53.9493632 11.7638259,55.7493632 C9.96382592,58.0493632 9.26382592,60.1493632 8.36382592,61.3493632 C7.46382592,62.5493632 5.36382592,64.9493632 5.16382592,66.0493632 C4.96382592,67.1493632 5.96382592,68.3493632 5.96382592,68.3493632 L0.263825924,78.6493632 C0.263825924,78.6493632 2.76382592,81.5493632 8.86382592,81.9493632 C14.9638259,82.3493632 15.3638259,80.6493632 23.1638259,82.7493632 C30.9638259,84.8493632 35.3638259,96.6493632 50.6638259,94.7493632 C50.6638259,94.7493632 48.6638259,88.5493632 46.1638259,84.8493632 C43.6638259,81.1493632 40.7638259,77.0493632 40.7638259,77.0493632 C40.9638259,75.9493632 42.1638259,72.4493632 41.3638259,71.6493632 C40.8638259,71.1493632 40.3638259,70.7493632 39.8638259,70.2493632 C40.2638259,69.3493632 40.7638259,68.4493632 40.7638259,67.4493632 C40.7638259,66.5493632 40.3638259,65.4493632 40.6638259,64.5493632 C40.8638259,63.9493632 41.4638259,63.5493632 42.0638259,63.5493632 C42.8638259,63.5493632 43.3638259,64.2493632 44.1638259,64.4493632 C44.9638259,64.6493632 46.2638259,64.5493632 47.0638259,64.5493632 C47.9638259,64.5493632 48.7638259,65.2493632 49.5638259,65.4493632 C51.6638259,66.1493632 53.9638259,65.8493632 55.4638259,64.1493632 C57.0638259,62.3493632 55.7638259,60.5493632 55.7638259,60.5493632 C55.7638259,60.5493632 54.5638259,59.0493632 54.5638259,58.1493632 C54.5638259,57.2493632 55.2638259,56.5493632 55.2638259,56.5493632 L55.2638259,56.4493632 L55.5638259,56.4493632 C56.2638259,56.4493632 56.8638259,55.9493632 56.8638259,55.4493632 C56.8638259,55.2493632 56.8638259,55.1493632 56.7638259,55.0493632 C57.2638259,55.1493632 57.9638259,55.2493632 58.0638259,55.2493632 C58.8638259,55.4493632 59.5638259,55.6493632 60.2638259,56.0493632 C61.6638259,56.8493632 62.5638259,58.2493632 62.9638259,59.7493632 C63.0638259,60.2493632 63.6638259,61.9493632 63.2638259,62.3493632 C62.9638259,62.6493632 62.8638259,63.4493632 62.8638259,63.8493632 C62.8638259,64.6493632 63.1638259,65.5493632 63.6638259,66.1493632 C63.7638259,66.3493632 64.2638259,66.6493632 64.3638259,66.8493632 C65.5638259,71.9493632 65.9638259,77.9493632 72.6638259,78.4493632 C75.4638259,78.6493632 77.0638259,77.1493632 77.0638259,77.1493632 C77.0638259,77.1493632 78.8638259,76.0493632 79.4638259,73.0493632 C80.0638259,70.0493632 80.1638259,66.5493632 80.1638259,66.5493632 C80.1638259,66.5493632 80.6638259,64.8493632 75.8638259,64.6493632 L75.8638259,64.6493632 Z M33.9638259,3.74936316 L32.8638259,3.74936316 L32.8638259,3.64936316 C33.0638259,3.74936316 33.4638259,3.74936316 33.9638259,3.74936316 L33.9638259,3.74936316 Z M26.4638259,4.24936316 C26.7638259,4.14936316 28.9638259,3.84936316 29.8638259,3.84936316 L29.8638259,4.04936316 C29.5638259,4.04936316 29.1638259,4.14936316 28.8638259,4.14936316 C27.2638259,4.34936316 25.5638259,4.74936316 23.9638259,5.34936316 C24.7638259,4.84936316 25.5638259,4.34936316 26.4638259,4.24936316 L26.4638259,4.24936316 Z M20.9638259,4.54936316 C22.5638259,3.74936316 23.8638259,3.64936316 25.6638259,3.44936316 C24.2638259,3.54936316 22.5638259,5.94936316 21.0638259,5.44936316 C20.6638259,5.24936316 20.4638259,4.84936316 20.9638259,4.54936316 L20.9638259,4.54936316 Z M37.3638259,3.94936316 L37.7638259,3.94936316 L37.7638259,3.94936316 L37.3638259,3.94936316 L37.3638259,3.94936316 Z M38.4638259,2.84936316 C37.6638259,2.74936316 36.2638259,2.34936316 35.4638259,2.64936316 C36.7638259,2.24936316 37.9638259,1.74936316 39.2638259,1.44936316 C39.9638259,1.34936316 40.6638259,1.24936316 41.3638259,1.34936316 C42.3638259,1.54936316 42.4638259,2.24936316 41.5638259,2.74936316 L41.4638259,2.74936316 C40.5638259,3.24936316 39.4638259,2.94936316 38.4638259,2.84936316 L38.4638259,2.84936316 Z" id="Shape" fill="#000000"></path>
    </g>
</svg>

<?xml version="1.0" encoding="UTF-8" standalone="yes"?><svg xmlns="http://www.w3.org/2000/svg" version="1.1" xmlns:xlink="http://www.w3.org/1999/xlink" viewBox="0 0 81 95"><path fill="#000" fill-rule="evenodd" d="M75.864 64.65c-4.8-.3-4.4 1.6-4.4 1.6l.2 4.6s0 2.4-1.4 2.3c-1.4-.1-1.8-2.8-1.8-2.8l-1.1-4.6c0-.1.1-.3.1-.4.1-.3.1-.7 0-1-.1-.7-.2-1.5-.7-2.1 0 0-.8-.5-.8-.4-.5-3.4-2.2-6.8-5.7-7.8-.2-.1-2.5-.5-3.6-.7.1-.3.3-.6.4-.9.3-1.2-.4-2.3-.8-3.3-.3-1-.2-1.9 1-2 1.1-.1 3.1 1 3.7.8.7-.1 1.5-.7 1.5-1.5s-1.2-2.5-1.2-2.5-1.6-3.2-2.1-4.6c-.5-1.4-2.3-2.7-2.3-2.7s-1.8-1.3-1.6-2.2c.2-.9.9-1.2 1.2-2.1 1 .1 2.1.4 2.9.5 2.9.4 6.7 1.2 9 .7 0 0 1.2-.1 0-1s-4.1-3.7-5-4.7c-.9-1-4.1-3.1-4.7-4.4-1.9-3.9-2.4-8.6-5.6-11.9-2.3-2.4-5.2-4.3-8.2-5.6 1.1.2 2.2.3 3.3.3h.4v-.9c-2.8.1-6-.6-8.3-1.2.5 0 1-.1 1.6-.3 1-.3 2.9-1.1 2.5-2.5-.5-1.9-3.8-1.3-5.1-1.1-2.5.4-4.8 1.6-7 2.8-.3-.4-.8-.5-1.4-.4-.4.1-.7.3-.9.5-.4-.2-1.7-.7-4.9-.7-2 0-8.9 2.1-5.3 4.4-1.5.4-3.2.8-4.4.9l.1.9c.7-.1 1.5-.2 2.4-.4-2.5 1.5-4.7 3.4-6.6 5.6-2 2.3-3.1 5.4-3.5 8.3-.5 3.6.5 7.2.3 10.8-.2 1.9-1.2 2.8-2.2 4.3-1 1.5-1.4 3.2-2.4 4.7-.8 1.4-2.1 2.4-3.2 3.6-.4.4-.3.7 0 .8h.4c.8-.1 1.5-.5 2.2-.7 1.1-.3 2.2-.6 3.2-1 .7-.3 3-1 5.4-1.9.1.9.2 1.9.4 2.5.4 1.2 2.3 3.4 2.3 3.4s1.8 1.6 1.9 3.7c0 1.1-.3 2-.7 2.6-.6-.4-2.2-1-3.6.8-1.8 2.3-2.5 4.4-3.4 5.6-.9 1.2-3 3.6-3.2 4.7-.2 1.1.8 2.3.8 2.3l-5.7 10.3s2.5 2.9 8.6 3.3c6.1.4 6.5-1.3 14.3.8 7.8 2.1 12.2 13.9 27.5 12 0 0-2-6.2-4.5-9.9s-5.4-7.8-5.4-7.8c.2-1.1 1.4-4.6.6-5.4-.5-.5-1-.9-1.5-1.4.4-.9.9-1.8.9-2.8 0-.9-.4-2-.1-2.9.2-.6.8-1 1.4-1 .8 0 1.3.7 2.1.9.8.2 2.1.1 2.9.1.9 0 1.7.7 2.5.9 2.1.7 4.4.4 5.9-1.3 1.6-1.8.3-3.6.3-3.6s-1.2-1.5-1.2-2.4c0-.9.7-1.6.7-1.6v-.1h.3c.7 0 1.3-.5 1.3-1 0-.2 0-.3-.1-.4.5.1 1.2.2 1.3.2.8.2 1.5.4 2.2.8 1.4.8 2.3 2.2 2.7 3.7.1.5.7 2.2.3 2.6-.3.3-.4 1.1-.4 1.5 0 .8.3 1.7.8 2.3.1.2.6.5.7.7 1.2 5.1 1.6 11.1 8.3 11.6 2.8.2 4.4-1.3 4.4-1.3s1.8-1.1 2.4-4.1c.6-3 .7-6.5.7-6.5s.5-1.7-4.3-1.9zm-41.9-60.9h-1.1v-.1c.2.1.6.1 1.1.1zm-7.5.5c.3-.1 2.5-.4 3.4-.4v.2c-.3 0-.7.1-1 .1-1.6.2-3.3.6-4.9 1.2.8-.5 1.6-1 2.5-1.1zm-5.5.3c1.6-.8 2.9-.9 4.7-1.1-1.4.1-3.1 2.5-4.6 2-.4-.2-.6-.6-.1-.9zm16.4-.6h.4-.4zm1.1-1.1c-.8-.1-2.2-.5-3-.2 1.3-.4 2.5-.9 3.8-1.2.7-.1 1.4-.2 2.1-.1 1 .2 1.1.9.2 1.4h-.1c-.9.5-2 .2-3 .1z"/></svg>
